!!!!SEGMENT: pl-cz--iii-457--002_kuci-mateusz--symfonia-es-andantino.krn
!!!cenid: 17xx:946
!!!COM: Kuci, Mateusz
!!!COM-rismid: pe30017582
!!!CDT:
!!!CNT:
!!!OPR: Symfonia Es
!!!OTL: Andantino
!!!OMV: 002
!!!PDT:
!!!AGN: Secular
!!!SMS-siglum: PL-CZ
!!!SMS-shelfmark: III-457
!!!SMS-shelfwork: 001-002 M
!!!SMS-variant:
!!!SMS-altvar:
!!!NIFC-rismid: 300000669
!!!URL-scan: http://repozytorium.nifc.pl/skany/pl-cz-nut--iii-457
!!!ONB-nifc: UWAGA: części Symfonii: Allegro, Andantino, Presto
!!!key: E-
**kern	**dynam	**kern	**dynam	**kern	**dynam	**kern	**dynam	**kern	**dynam	**kern	**dynam
*part6	*part6	*part5	*part5	*part4	*part4	*part3	*part3	*part2	*part2	*part1	*part1
*staff6	*	*staff5	*	*staff4	*	*staff3	*	*staff2	*	*staff1	*
*Ibass	*	*Iviola	*	*Ivioln	*	*Ivioln	*	*Iempty	*	*Iempty	*
*I"Basso	*	*I"Alto Viola	*	*I"Violino Secondo	*	*I"Violino Primo	*	*I"Corno Secundo in B	*	*I"Corno Primo in B	*
*I'cb	*	*I'a-vla	*	*I'vl 2	*	*I'vl 1	*	*I'cor 2 in B	*	*I'cor 1 in B	*
*ICstr	*	*ICstr	*	*ICstr	*	*ICstr	*	*ICbras	*	*ICbras	*
*IG	*	*	*	*	*	*	*	*	*	*	*
*clefF4	*	*clefC3	*	*clefG2	*	*clefG2	*	*clefG2	*	*clefG2	*
*	*	*	*	*	*	*	*	*ITrd1c2	*	*ITrd1c2	*
*k[b-e-]	*	*k[b-e-]	*	*k[b-e-]	*	*k[b-e-]	*	*k[b-e-]	*	*k[b-e-]	*
*E-:	*	*E-:	*	*E-:	*	*E-:	*	*E-:	*	*E-:	*
*M2/2	*	*M2/2	*	*M2/2	*	*M2/2	*	*M2/2	*	*M2/2	*
*met(c|)	*	*met(c|)	*	*met(c|)	*	*met(c|)	*	*met(c|)	*	*met(c|)	*
*2\right	*	*2\right	*	*2\right	*	*2\right	*	*2\right	*	*2\right	*
*4\right	*	*4\right	*	*4\right	*	*4\right	*	*4\right	*	*4\right	*
*8\right	*	*8\right	*	*8\right	*	*8\right	*	*8\right	*	*8\right	*
!	!	!LO:TX:t=P:problem:uwaga - skan 0009	!	!LO:TX:t=P:problem:uwaga - skan 0006	!	!LO:TX:t=P:problem:uwaga - skan 0003	!	!	!	!	!
!	!	!LO:TX:b:t=semper pia	!	!LO:TX:b:t=Semper pia	!	!LO:TX:a:t=Andantino	!	!	!	!	!
!LO:TX:b:t=Semper pia	!	!LO:TX:a:t=Andante	!	!LO:TX:a:t=Andante	!	!LO:TX:b:t=Semper pia	!	!LO:TX:a:t=Andantino	!	!LO:TX:a:t=Andantino	!
4r	p	4r	p	4B-/	p	4b-\	p	4r	.	4r	.
=1	=1	=1	=1	=1	=1	=1	=1	=1	=1	=1	=1
!	!	!	!	!	!	!	!	!LO:TX:a:t=9	!	!LO:TX:a:t=9	!
(1B-	.	(1d	.	4f/	.	4ff\	.	1r	.	1r	.
.	.	.	.	4f/	.	4ff\	.	.	.	.	.
.	.	.	.	4f/	.	4ff\	.	.	.	.	.
.	.	.	.	4f/	.	4ff\	.	.	.	.	.
=2	=2	=2	=2	=2	=2	=2	=2	=2	=2	=2	=2
(1A)	.	1c)	.	4.f/	.	4.ff\	.	1r	.	1r	.
.	.	.	.	8g/	.	8gg\	.	.	.	.	.
.	.	.	.	4f/	.	8ff\	.	.	.	.	.
.	.	.	.	.	.	8r	.	.	.	.	.
.	.	.	.	4r	.	4r	.	.	.	.	.
=3	=3	=3	=3	=3	=3	=3	=3	=3	=3	=3	=3
.	.	.	.	.	.	8qqgg/	.	.	.	.	.
(1G)	.	1B-X	.	4f/	.	4ff\	.	1r	.	1r	.
.	.	.	.	8e-/L	.	8ee-\L	.	.	.	.	.
.	.	.	.	8d/J	.	8dd\J	.	.	.	.	.
.	.	.	.	4e-/	.	4ee-\	.	.	.	.	.
.	.	.	.	4e-/	.	4ee-\	.	.	.	.	.
=4	=4	=4	=4	=4	=4	=4	=4	=4	=4	=4	=4
1F)	.	1A	.	4.e-/	.	4.ee-\	.	1r	.	1r	.
.	.	.	.	8f/	.	8ff\	.	.	.	.	.
.	.	.	.	4d/	.	4dd\	.	.	.	.	.
.	.	.	.	4r	.	4r	.	.	.	.	.
!	!	!	!	!LO:LB:g=original	!	!	!	!	!	!	!
=5	=5	=5	=5	=5	=5	=5	=5	=5	=5	=5	=5
.	.	.	.	8qqd/	p	8qqdd/	f	.	.	.	.
2E-\	.	2G/	.	4c/	.	4cc\	.	1r	.	1r	.
.	.	.	.	8Bn/L	.	8bn\L	p	.	.	.	.
.	.	.	.	8c/J	.	8cc\J	.	.	.	.	.
!	!LO:DY:b:t=for	!	!	!	!LO:DY:b:t=for	!	!LO:DY:b:t=for	!	!	!	!
2D\	f	2F/	.	4c/	f	(4cc\	f	.	.	.	.
.	.	.	.	4B-X/	.	4b-X\)	.	.	.	.	.
!	!	!	!	!	!	!LO:LB:g=original	!	!	!	!	!
=6	=6	=6	=6	=6	=6	=6	=6	=6	=6	=6	=6
!	!	!LO:TX:t=P:problem:2\right:global	!	!	!	!	!	!	!	!	!
.	.	.	.	8qqf/	p	8qqff/	p	.	.	.	.
2A\	p	2f\	.	8e-X/L	.	8ee-X\L	.	1r	.	1r	.
.	.	.	.	8d/	.	8dd\	.	.	.	.	.
.	.	.	.	8e-/	.	8ee-\	.	.	.	.	.
.	.	.	.	8f/J	.	8ff\J	.	.	.	.	.
!	!LO:DY:b:t=for	!	!	!	!	!	!LO:DY:b:t=for	!	!	!	!
2B-\	f	2f\	.	4e-/	f	4ee-\	f	.	.	.	.
.	.	.	.	4d/	.	4dd\	.	.	.	.	.
=7	=7	=7	=7	=7	=7	=7	=7	=7	=7	=7	=7
4E-\	.	4g\	.	4c/	p	4cc\	.	1r	.	1r	.
4D\	p	4f\	.	4B-X/	.	4b-X\	.	.	.	.	.
4E-\	.	4g\	.	4c/	.	4cc\	.	.	.	.	.
4F\	.	4e-\	.	4A/	.	4a\	.	.	.	.	.
!LO:LB:g=original	!	!	!	!	!	!	!	!	!	!	!
=8	=8	=8	=8	=8	=8	=8	=8	=8	=8	=8	=8
!	!LO:DY:b:t=for	!	!	!	!	!	!	!	!	!	!
2BB-/	f	2d\	.	4B-/	.	4b-\	.	1r	.	1r	.
.	.	.	.	8qqc#X/	.	8qqcc#X/	.	.	.	.	.
.	.	.	.	4d/	.	4dd\	.	.	.	.	.
.	.	.	.	8qqen/	.	8qqeen/	.	.	.	.	.
4r	.	4r	.	4f/	.	4ff\	.	.	.	.	.
4D\	.	4f\	.	8r	.	8r	.	.	.	.	.
!	!	!LO:LB:g=original	!	!	!	!	!	!	!	!	!
.	.	.	.	8B-/	.	8b-\	.	.	.	.	.
=9	=9	=9	=9	=9	=9	=9	=9	=9	=9	=9	=9
4E-\	.	(4g\	.	(4c/	.	(4cc\	.	1r	.	1r	.
(4D\	.	4f\	.	4B-/)	.	4b-X\	.	.	.	.	.
4E-\	.	4g\	.	4c/	.	4cc\)	.	.	.	.	.
4F\)	.	4e-\)	.	4A/	.	4a\	.	.	.	.	.
=10	=10	=10	=10	=10	=10	=10	=10	=10	=10	=10	=10
4BB-/	.	4d\	.	4B-/	.	4b-\	.	4r	.	4r	.
!	!	!	!	!	!	!	!	!LO:TX:a:t=Solo	!	!LO:TX:a:t=Solo	!
4r	.	4r	.	4r	.	4r	.	8.B-/L	.	8.b-\L	.
.	.	.	.	.	.	.	.	16B-/Jk	.	16b-\Jk	.
!	!	!	!	!	!	!	!	!LO:TX:t=P:problem:mixed beam	!	!	!
4r	.	2r	.	2r	.	2r	.	8B-/L	.	8b-\L	.
.	.	.	.	.	.	.	.	8b-\	.	8dd\	.
4FF/	.	.	.	.	.	.	.	8f/	.	8cc\	.
.	.	.	.	.	.	.	.	8cc\J	.	8ee-\J	.
=11	=11	=11	=11	=11	=11	=11	=11	=11	=11	=11	=11
!	!	!LO:TX:a:t=3	!	!LO:TX:a:t=2	!	!LO:TX:a:t=2	!	!	!	!	!
4BB-/	.	1r	.	1r	.	1r	.	4b-\	.	4dd\	.
4r	.	.	.	.	.	.	.	8dd\L	.	8ff\L	.
.	.	.	.	.	.	.	.	8dd\J	.	8ff\J	.
4r	.	.	.	.	.	.	.	8dd\L	.	8ff\L	.
.	.	.	.	.	.	.	.	8b-\	.	8dd\	.
4F\	.	.	.	.	.	.	.	8cc\	.	8ee-\	.
.	.	.	.	.	.	.	.	8f\J	.	8cc\J	.
!	!	!	!	!	!	!	!	!	!	!LO:LB:g=original	!
=12	=12	=12	=12	=12	=12	=12	=12	=12	=12	=12	=12
4B-\	.	1r	.	1r	.	1r	.	4d/	.	4b-\	.
!	!	!	!	!LO:LB:g=original	!	!	!	!	!	!	!
4r	.	.	.	.	.	.	.	8.d/L	.	8.b-\L	.
.	.	.	.	.	.	.	.	16d/Jk	.	16b-\Jk	.
!	!	!	!	!	!	!	!	!LO:TX:t=P:problem:mixed beam	!	!	!
4r	.	.	.	.	.	.	.	8d/L	.	8b-\L	.
.	.	.	.	.	.	.	.	8b-\J	.	8dd\	.
!	!	!	!	!	!	!	!	!LO:LB:g=original	!	!	!
!	!	!	!	!	!	!	!	!LO:TX:t=P:problem:mixed beam	!	!	!
4F\	.	.	.	.	.	.	.	8f/L	.	8cc\	.
.	.	.	.	.	.	.	.	8cc\J	.	8ee-\J	.
=13	=13	=13	=13	=13	=13	=13	=13	=13	=13	=13	=13
4B-\	.	1r	.	2r	.	2r	.	4b-\	.	4dd\	.
4F\	.	.	.	.	.	.	.	8.f/L	.	8.cc\L	.
.	.	.	.	.	.	.	.	16f/Jk	.	16cc\Jk	.
4BB-/	.	.	.	4r	.	4r	.	4d/	.	4b-\	.
4r	.	.	.	4B-/	.	4b-\	.	4r	.	4r	.
=14	=14	=14	=14	=14	=14	=14	=14	=14	=14	=14	=14
!	!	!	!	!LO:TX:a:t=SIC&colon;s=1f	!	!	!	!LO:TX:a:t=16	!	!LO:TX:a:t=16	!
4BB-/	.	(1d	p	(1e-	p	4ff\	.	1r	.	1r	.
4r	.	.	.	.	.	4ff\	.	.	.	.	.
.	.	.	.	.	.	8qqee-/	.	.	.	.	.
4B-\	.	.	.	.	.	4dd\	.	.	.	.	.
.	.	.	.	.	.	8qqcc/	.	.	.	.	.
4r	.	.	.	.	.	4b-\	.	.	.	.	.
=15	=15	=15	=15	=15	=15	=15	=15	=15	=15	=15	=15
.	.	.	.	.	.	8qqbn/	.	.	.	.	.
4AA/	.	(1c)	.	1f)	.	4cc\	.	1r	.	1r	.
4r	.	.	.	.	.	4.cc\	.	.	.	.	.
4A\	.	.	.	.	.	.	.	.	.	.	.
.	.	.	.	.	.	8ff\L	.	.	.	.	.
!	!	!	!	!	!	!LO:LB:g=original	!	!	!	!	!
4r	.	.	.	.	.	8aa\	.	.	.	.	.
.	.	.	.	.	.	8ccc\J	.	.	.	.	.
=16	=16	=16	=16	=16	=16	=16	=16	=16	=16	=16	=16
.	.	.	.	.	.	8qqccc/	.	.	.	.	.
4G\	.	(1c)	.	2g/	.	4bb-\	.	1r	.	1r	.
4r	.	.	.	.	.	4bb-\	.	.	.	.	.
4C/	.	.	.	2b-X/	.	8r	.	.	.	.	.
.	.	.	.	.	.	8een\L	.	.	.	.	.
4r	.	.	.	.	.	8gg\	.	.	.	.	.
!LO:LB:g=original	!	!	!	!	!	!	!	!	!	!	!
.	.	.	.	.	.	8bb-\J	.	.	.	.	.
=17	=17	=17	=17	=17	=17	=17	=17	=17	=17	=17	=17
.	.	.	.	.	.	8qqccc/	.	.	.	.	.
4F\	.	(1f)	.	(1cc	.	8bb-\L	.	1r	.	1r	.
.	.	.	.	.	.	8aa\J	.	.	.	.	.
4r	.	.	.	.	.	4aa\	.	.	.	.	.
4A\	.	.	.	.	.	4r	.	.	.	.	.
4r	.	.	.	.	.	4ff\	.	.	.	.	.
=18	=18	=18	=18	=18	=18	=18	=18	=18	=18	=18	=18
.	.	.	.	.	.	8qqff#X/	.	.	.	.	.
2B-X\	.	4g\)	.	4dd\)	.	4gg\	.	1r	.	1r	.
.	.	4r	.	4r	.	8bb-\L	.	.	.	.	.
.	.	.	.	.	.	8aa\J	.	.	.	.	.
!	!	!	!	!	!	!LO:TX:t=P:problem:2\right:global	!	!	!	!	!
.	.	.	.	.	.	8qqaa/	.	.	.	.	.
8r	.	8r	.	8r	.	2gg\	.	.	.	.	.
(8B-\L	.	(8g'\L	.	(8dd\L	.	.	.	.	.	.	.
8B-\	.	8g'\	.	8dd\	.	.	.	.	.	.	.
8B-\J)	.	8g'\J)	.	8dd\J)	.	.	.	.	.	.	.
=19	=19	=19	=19	=19	=19	=19	=19	=19	=19	=19	=19
!	!	!	!	!LO:TX:t=P:problem:2\right:global	!	!	!	!	!	!	!
.	.	.	.	.	.	8qqff#X/	.	.	.	.	.
2B-\	.	2g\	.	2dd\	.	4gg\	.	1r	.	1r	.
.	.	.	.	.	.	8bb-\L	.	.	.	.	.
.	.	.	.	.	.	8aa\J	.	.	.	.	.
.	.	.	.	.	.	8qqaa/	.	.	.	.	.
8r	.	8r	.	8r	.	2gg\	.	.	.	.	.
8B-\L	.	8g'\L	.	(8dd'\L	.	.	.	.	.	.	.
8B-\	.	8g'\	.	8dd'\	.	.	.	.	.	.	.
8B-\J	.	8g'\J	.	8dd'\J)	.	.	.	.	.	.	.
=20	=20	=20	=20	=20	=20	=20	=20	=20	=20	=20	=20
.	.	.	.	.	.	8qqff#X/	.	.	.	.	.
2.B-\	.	[1g	.	1dd	.	4gg\	.	1r	.	1r	.
.	.	.	.	.	.	8bb-\L	.	.	.	.	.
.	.	.	.	.	.	8aa\J	.	.	.	.	.
.	.	.	.	.	.	4aa\	.	.	.	.	.
4Bn\	.	.	.	.	.	8gg\L	.	.	.	.	.
.	.	.	.	.	.	8ffn\J	.	.	.	.	.
=21	=21	=21	=21	=21	=21	=21	=21	=21	=21	=21	=21
4c\	.	4g\]	.	[2g/	.	(2ff\	.	1r	.	1r	.
4G\	.	4r	.	.	.	.	.	.	.	.	.
!LO:TX:t=P:problem:mixed beam	!	!	!	!	!	!	!	!	!	!	!
8C/L	.	2r	.	4gn/]	.	4een\)	.	.	.	.	.
!	!	!LO:LB:g=original	!	!	!	!	!	!	!	!	!
(8B-X\	.	.	.	.	.	.	.	.	.	.	.
8A\	.	.	.	4r	.	4r	.	.	.	.	.
!	!	!	!	!	!	!LO:LB:g=original	!	!	!	!	!
8G\J)	.	.	.	.	.	.	.	.	.	.	.
=22	=22	=22	=22	=22	=22	=22	=22	=22	=22	=22	=22
4F\	.	4c\	.	(2.c/	.	(2.cc\	.	1r	.	1r	.
4r	.	4r	.	.	.	.	.	.	.	.	.
4A\	.	4f\	.	.	.	.	.	.	.	.	.
4r	.	4r	.	4c#X/)	.	4cc#X\)	.	.	.	.	.
!	!	!	!	!LO:LB:g=original	!	!	!	!	!	!	!
=23	=23	=23	=23	=23	=23	=23	=23	=23	=23	=23	=23
4B-\	.	4d\	.	4d/	.	(8dd\L	.	1r	.	1r	.
.	.	.	.	.	.	8b-\)	.	.	.	.	.
4r	.	4r	.	4r	.	8ff|\	.	.	.	.	.
.	.	.	.	.	.	8ff|\J	.	.	.	.	.
4B-\	.	4d\	.	4f/	.	2ffT\	.	.	.	.	.
4r	.	4r	.	4r	.	.	.	.	.	.	.
=24	=24	=24	=24	=24	=24	=24	=24	=24	=24	=24	=24
4B-\	.	4en\	.	4g/	.	(8een\L	.	1r	.	1r	.
.	.	.	.	.	.	8cc\)	.	.	.	.	.
4r	.	4r	.	4r	.	8gg|\	.	.	.	.	.
.	.	.	.	.	.	8gg|\J	.	.	.	.	.
4B-\	.	4e\	.	4g/	.	2ggT\	.	.	.	.	.
4r	.	4r	.	4r	.	.	.	.	.	.	.
!LO:LB:g=original	!	!	!	!	!	!	!	!	!	!	!
=25	=25	=25	=25	=25	=25	=25	=25	=25	=25	=25	=25
4A\	.	4c\	.	4f/	.	8ff\L	.	1r	.	1r	.
.	.	.	.	.	.	8cc\	.	.	.	.	.
4r	.	4r	.	4r	.	8aa\	.	.	.	.	.
.	.	.	.	.	.	8aa\J	.	.	.	.	.
4F\	.	4f\	.	4cc\	.	2aat\	.	.	.	.	.
4r	.	4r	.	4r	.	.	.	.	.	.	.
=26	=26	=26	=26	=26	=26	=26	=26	=26	=26	=26	=26
4En\	.	4g\	.	4cc\	.	8gg\L	.	1r	.	1r	.
.	.	.	.	.	.	8cc\	.	.	.	.	.
4r	.	4r	.	4r	.	8bb-\	.	.	.	.	.
.	.	.	.	.	.	8bb-\J	.	.	.	.	.
4C/	.	4g\	.	4cc\	.	2bb-T\	.	.	.	.	.
4r	.	4r	.	4r	.	.	.	.	.	.	.
=27	=27	=27	=27	=27	=27	=27	=27	=27	=27	=27	=27
4F\	.	4f\	.	(4cc\	.	8aa\L	.	1r	.	1r	.
.	.	.	.	.	.	8gg\	.	.	.	.	.
4G\	.	4g\	.	4b-X\	.	8ff\	.	.	.	.	.
.	.	.	.	.	.	8een\J	.	.	.	.	.
4A\	.	4a\	.	4a\)	.	8ff\L	.	.	.	.	.
.	.	.	.	.	.	8ee\	.	.	.	.	.
4A\	.	[4f\	.	4r	.	8dd\	.	.	.	.	.
.	.	.	.	.	.	8cc#X\J	.	.	.	.	.
=28	=28	=28	=28	=28	=28	=28	=28	=28	=28	=28	=28
8B-\L	.	2f\]	.	4b-\	.	4dd\	.	1r	.	1r	.
8A\	.	.	.	.	.	.	.	.	.	.	.
8G\	.	.	.	4b-\	.	4dd\	.	.	.	.	.
8F\J	.	.	.	.	.	.	.	.	.	.	.
2En\	.	4g\	.	4.b-T\	.	4.dd\	.	.	.	.	.
.	.	4c\	.	.	.	.	.	.	.	.	.
.	.	.	.	16a\LL	.	(16ccn\LL	.	.	.	.	.
.	.	.	.	16g\JJ	.	16b-X\JJ)	.	.	.	.	.
!	!	!	!	!	!	!LO:LB:g=original	!	!	!	!	!
=29	=29	=29	=29	=29	=29	=29	=29	=29	=29	=29	=29
.	.	.	.	8qqd/	.	8qqb-/	.	.	.	.	.
4F\	.	4F/	.	8c/L	.	8a/L	.	1r	.	1r	.
.	.	.	.	16B-/L	.	16g/L	.	.	.	.	.
.	.	.	.	16c/JJ	.	16a/JJ	.	.	.	.	.
.	.	.	.	8qqe-/	.	8qqcc/	.	.	.	.	.
4B-\	.	4d\	.	8d/L	.	8b-/L	.	.	.	.	.
.	.	.	.	16c/L	.	16a/L	.	.	.	.	.
.	.	.	.	16B-/JJ	.	16g/JJ	.	.	.	.	.
.	.	.	.	8qqB-/	.	8qqf/	.	.	.	.	.
4c\	.	4c\	.	2B-T/	.	2gT/	.	.	.	.	.
!	!	!	!	!LO:LB:g=original	!	!	!	!	!	!	!
4C/	.	4c\	.	.	.	.	.	.	.	.	.
!	!	!LO:LB:g=original	!	!	!	!	!	!	!	!	!
=30	=30	=30	=30	=30	=30	=30	=30	=30	=30	=30	=30
.	.	.	.	8qqB-/	.	8qqg/	.	.	.	.	.
4F\	.	([1f	.	2A/	.	2f/	.	[1f	p	[1ff	p
4F\	p	.	.	.	.	.	.	.	.	.	.
4F\	.	.	.	4r	.	4r	.	.	.	.	.
4F\	.	.	.	4A/	p	4ff\	.	.	.	.	.
=31	=31	=31	=31	=31	=31	=31	=31	=31	=31	=31	=31
4F\	.	1f_	.	4B-/	.	(4een\	.	1f_	.	1ff_	.
4F\	.	.	.	(4c/	.	4ee-X\	.	.	.	.	.
4F\	.	.	.	4d/	.	4dd\	.	.	.	.	.
4F\	.	.	.	4en/)	.	4b-X\)	.	.	.	.	.
=32	=32	=32	=32	=32	=32	=32	=32	=32	=32	=32	=32
.	.	.	.	.	.	8qqb-/	.	.	.	.	.
4FF/	.	1f_	.	2f/	.	2a/	.	1f_	.	1ff_	.
4FF/	.	.	.	.	.	.	.	.	.	.	.
4FF/	.	.	.	4r	.	4r	.	.	.	.	.
4FF/	.	.	.	(4A/	.	(4ff\	pp	.	.	.	.
!LO:LB:g=original	!	!	!	!	!	!	!	!	!	!	!
=33	=33	=33	=33	=33	=33	=33	=33	=33	=33	=33	=33
!LO:TX:t=P:problem:dźwięk niewidoczny - defekt rkp	!	!	!	!	!	!	!	!	!	!	!
4FF/yy	.	1f])	.	4B-/	.	4een\	.	1f_	.	1ff_	.
4FF/	.	.	.	4c/)	.	4ee-X\	.	.	.	.	.
4FF/	.	.	.	4B-/	.	4dd\)	.	.	.	.	.
4FF/	.	.	.	4B-/	.	4en/	.	.	.	.	.
=34	=34	=34	=34	=34	=34	=34	=34	=34	=34	=34	=34
!	!	!	!	!	!	!LO:TX:a:t=SIC&colon;s=2en	!	!	!	!LO:TX:t=P:problem:2\right:global	!
2.FF/	.	2f\	pp	2B-/	.	2e-/	.	2.f/]	pp	2.ff\]	pp
.	.	4f\	.	4A/	.	4f/	.	.	.	.	.
4r	.	4F/	.	4r	.	4f/	.	4r	.	4r	.
!	!	!	!	!	!	!	!	!	!	!LO:LB:g=original	!
==35	==35	==35	==35	==35	==35	==35	==35	==35	==35	==35	==35
!	!	!	!	!	!	!	!	!LO:TX:a:t=8	!	!LO:TX:a:t=8	!
(1F	.	(4c\	pp	((1a	p	4cc\	.	1r	.	1r	.
.	.	4c\	.	.	.	4cc\	.	.	.	.	.
.	.	4c\	.	.	.	4cc\	.	.	.	.	.
.	.	4c\)	.	.	.	4cc\	.	.	.	.	.
=36	=36	=36	=36	=36	=36	=36	=36	=36	=36	=36	=36
1En	.	4.c\	.	1g)	.	4.cc\	.	1r	.	1r	.
.	.	8d\	.	.	.	8dd\	.	.	.	.	.
.	.	4c\	.	.	.	4cc\	.	.	.	.	.
.	.	4r	.	.	.	4r	.	.	.	.	.
!	!	!	!	!	!	!LO:LB:g=original	!	!	!	!	!
=37	=37	=37	=37	=37	=37	=37	=37	=37	=37	=37	=37
1D	.	4c\	.	1f	.	4cc\	.	1r	.	1r	.
.	.	(8B-X/L	.	.	.	8b-X\L	.	.	.	.	.
.	.	8A/J)	.	.	.	8an\J	.	.	.	.	.
.	.	4B-/	.	.	.	4b-\	.	.	.	.	.
.	.	4B-/	.	.	.	4b-\	.	.	.	.	.
=38	=38	=38	=38	=38	=38	=38	=38	=38	=38	=38	=38
1C	.	8B-/L	.	1en	.	8b-/L	.	1r	.	1r	.
.	.	(8A/	.	.	.	8a/	.	.	.	.	.
.	.	8G#X/)	.	.	.	8g#X/	.	.	.	.	.
.	.	8A/J	.	.	.	8a/J	.	.	.	.	.
.	.	2A/	.	.	.	2a/	.	.	.	.	.
!	!	!LO:LB:g=original	!	!	!	!	!	!	!	!	!
=39	=39	=39	=39	=39	=39	=39	=39	=39	=39	=39	=39
.	.	8qqA/	.	.	.	8qqa/	.	.	.	.	.
2BB-/)	.	4G/	.	1d)	.	4gn/	.	1r	.	1r	.
!	!	!	!	!LO:LB:g=original	!	!	!	!	!	!	!
.	.	(8F#X/L	.	.	.	8f#X/L	.	.	.	.	.
.	.	8G/J)	.	.	.	8g/J	.	.	.	.	.
[2B-\	.	8d\L	.	.	.	8dd\L	.	.	.	.	.
.	.	8B-X\	.	.	.	8b-X\	.	.	.	.	.
.	.	8A\	.	.	.	8a\	.	.	.	.	.
.	.	8G\J	.	.	.	8g\J	.	.	.	.	.
=40	=40	=40	=40	=40	=40	=40	=40	=40	=40	=40	=40
2B-\]	.	8F/L	.	2c/	.	8f/L	.	1r	.	1r	.
.	.	8En/	.	.	.	8en/	.	.	.	.	.
.	.	8G/	.	.	.	8g/	.	.	.	.	.
.	.	8E/J	.	.	.	8e/J	.	.	.	.	.
4A\	.	4F/	.	4.c/	.	4f/	.	.	.	.	.
!	!	!LO:TX:t=P:problem:mixed beam	!	!	!	!LO:TX:t=P:problem:mixed beam	!	!	!	!	!
4F\	.	8.C/L	.	.	.	8.c/L	.	.	.	.	.
.	.	.	.	8a/	.	.	.	.	.	.	.
.	.	16c\Jk	.	.	.	16cc\Jk	.	.	.	.	.
=41	=41	=41	=41	=41	=41	=41	=41	=41	=41	=41	=41
2F\	.	2c\	.	2a/	.	(2cc\	.	1r	.	1r	.
4En\	.	4B-X/	.	4g/	.	4b-X\	.	.	.	.	.
4F\	.	4An/	.	4f/	.	4a/)	.	.	.	.	.
=42	=42	=42	=42	=42	=42	=42	=42	=42	=42	=42	=42
2C/	.	2At/	.	2f/	.	2a/	.	1r	.	1r	.
!	!	!	!	!	!	!	!	!LO:LB:g=original	!	!	!
8c\L	.	4G/	.	4en/	.	4g/	.	.	.	.	.
(8B-X\	.	.	.	.	.	.	.	.	.	.	.
8A\	.	4r	.	4r	.	4r	.	.	.	.	.
8G\J)	.	.	.	.	.	.	.	.	.	.	.
=43	=43	=43	=43	=43	=43	=43	=43	=43	=43	=43	=43
!	!	!LO:TX:a:t=4	!	!	!	!LO:TX:a:t=3	!	!LO:TX:a:t=Solo	!	!LO:TX:b:t=Solo	!
4F\	.	1r	.	1r	.	1r	.	4f/	.	4ff\	.
4r	.	.	.	.	.	.	.	8.f/L	.	8ff\L	.
.	.	.	.	.	.	.	.	.	.	8ff\J	.
.	.	.	.	.	.	.	.	16f/Jk	.	.	.
4r	.	.	.	.	.	.	.	4f/	.	4ff\	.
4C/	.	.	.	.	.	.	.	4cc\	.	4gg\	.
!LO:LB:g=original	!	!	!	!	!	!	!	!	!	!	!
=44	=44	=44	=44	=44	=44	=44	=44	=44	=44	=44	=44
4FF/	.	1r	.	1r	.	1r	.	4ff\	.	4aa\	.
4r	.	.	.	.	.	.	.	4r	.	4r	.
4r	.	.	.	.	.	.	.	4ff\	.	4aa\	.
4C/	.	.	.	.	.	.	.	4cc\	.	4gg\	.
=45	=45	=45	=45	=45	=45	=45	=45	=45	=45	=45	=45
4F\	.	1r	.	1r	.	1r	.	4f/	.	4ff\	.
4A\	.	.	.	.	.	.	.	8.f/L	.	8.ff\L	.
.	.	.	.	.	.	.	.	16f/Jk	.	16ff\Jk	.
4c\	.	.	.	.	.	.	.	4f/	.	4ff\	.
4C/	.	.	.	.	.	.	.	4cc\	.	4gg\	.
=46	=46	=46	=46	=46	=46	=46	=46	=46	=46	=46	=46
4F\	.	1r	.	2r	.	2r	.	4ff\	.	4aa\	.
4C/	.	.	.	.	.	.	.	8.cc\L	.	4gg\	.
.	.	.	.	.	.	.	.	16cc\Jk	.	.	.
4FF/	.	.	.	4r	.	4r	.	4f/	.	4ff\	.
4r	.	.	.	4f/	pp	4ff\	.	4r	.	4r	.
!	!	!	!	!	!	!LO:LB:g=original	!	!	!	!	!
=47	=47	=47	=47	=47	=47	=47	=47	=47	=47	=47	=47
!	!	!	!	!	!	!	!	!LO:TX:a:t=19	!	!LO:TX:a:t=19	!
(1E-X	.	1an	p	(1cc	.	8.ff\L	.	1r	.	1r	.
.	.	.	.	.	.	[16an\Jk	.	.	.	.	.
.	.	.	.	.	.	2a/]	.	.	.	.	.
.	.	.	.	.	.	4ff\	.	.	.	.	.
=48	=48	=48	=48	=48	=48	=48	=48	=48	=48	=48	=48
1D	.	1b-	.	1dd	.	(8ff\L	.	1r	.	1r	.
.	.	.	.	.	.	8b-X\J)	.	.	.	.	.
.	.	.	.	.	.	2b-\	.	.	.	.	.
.	.	.	.	.	.	4ff\	.	.	.	.	.
=49	=49	=49	=49	=49	=49	=49	=49	=49	=49	=49	=49
1AA)	.	1cc	.	1ee-X)	.	8ff\L	.	1r	.	1r	.
.	.	.	.	.	.	8cc\J	.	.	.	.	.
.	.	.	.	.	.	2cc\	.	.	.	.	.
.	.	.	.	.	.	4ee-X\	.	.	.	.	.
=50	=50	=50	=50	=50	=50	=50	=50	=50	=50	=50	=50
4BB-/	.	[2f\	.	(2cc\	.	2ee-\	.	1r	.	1r	.
8D/L	.	.	.	.	.	.	.	.	.	.	.
8F/J	.	.	.	.	.	.	.	.	.	.	.
4B-\	.	4f\]	.	4b-\)	.	4dd\	.	.	.	.	.
4r	.	4r	.	4r	.	8r	.	.	.	.	.
!	!	!LO:LB:g=original	!	!	!	!	!	!	!	!	!
.	.	.	.	.	.	8dd\	.	.	.	.	.
=51	=51	=51	=51	=51	=51	=51	=51	=51	=51	=51	=51
!	!	!	!	!	!	!LO:TX:t=P:problem:mixed beam	!	!	!	!	!
(1C	.	(1f#X	.	1a	.	8dd\L	.	1r	.	1r	.
.	.	.	.	.	.	[8f#X/J	.	.	.	.	.
.	.	.	.	.	.	2f#/]	.	.	.	.	.
.	.	.	.	.	.	4dd\	.	.	.	.	.
=52	=52	=52	=52	=52	=52	=52	=52	=52	=52	=52	=52
!	!	!	!	!	!	!LO:TX:t=P:problem:mixed beam	!	!	!	!	!
(1BB-X)	.	1g	.	1b-X	.	8dd\L	.	1r	.	1r	.
.	.	.	.	.	.	[8g/J	.	.	.	.	.
.	.	.	.	.	.	2g/]	.	.	.	.	.
.	.	.	.	.	.	4dd\	.	.	.	.	.
=53	=53	=53	=53	=53	=53	=53	=53	=53	=53	=53	=53
1F#X)	.	1a)	.	1cc	.	8dd\L	.	1r	.	1r	.
!	!	!	!	!LO:LB:g=original	!	!	!	!	!	!	!
.	.	.	.	.	.	8a\J	.	.	.	.	.
.	.	.	.	.	.	2a\	.	.	.	.	.
.	.	.	.	.	.	8ee-X\L	.	.	.	.	.
.	.	.	.	.	.	8cc\J	.	.	.	.	.
=54	=54	=54	=54	=54	=54	=54	=54	=54	=54	=54	=54
.	.	.	.	.	.	8qqdd/	.	.	.	.	.
2G\	.	1d	.	(8a/L	.	8cc\L	.	1r	.	1r	.
.	.	.	.	8g/J)	.	8b-X\J	.	.	.	.	.
.	.	.	.	2.g/	.	4.b-\	.	.	.	.	.
2B-\	.	.	.	.	.	.	.	.	.	.	.
.	.	.	.	.	.	8dd\L	.	.	.	.	.
.	.	.	.	.	.	8dd\	.	.	.	.	.
.	.	.	.	.	.	8dd\J	.	.	.	.	.
!	!	!	!	!	!	!LO:LB:g=original	!	!	!	!	!
=55	=55	=55	=55	=55	=55	=55	=55	=55	=55	=55	=55
.	.	8qqf/	.	.	.	8qqff/	.	.	.	.	.
2c\	.	4e-X\	.	1g	.	4ee-X\	.	1r	.	1r	.
.	.	4.e-\	.	.	.	4.ee-\	.	.	.	.	.
2E-X\	.	.	.	.	.	.	.	.	.	.	.
!LO:LB:g=original	!	!	!	!	!	!	!	!	!	!	!
.	.	8d\L	.	.	.	8dd\L	.	.	.	.	.
.	.	8c\	.	.	.	8cc\	.	.	.	.	.
.	.	8B-X\J	.	.	.	8b-\J	.	.	.	.	.
=56	=56	=56	=56	=56	=56	=56	=56	=56	=56	=56	=56
!LO:TX:t=P:problem:takt niewidoczny - defekt rkp	!	!	!	!	!	!	!	!	!	!	!
.	.	8qqB-/	.	.	.	8qqb-/	.	.	.	.	.
1ryy	.	4An/	.	[1f	.	4a/	.	1r	.	1r	.
.	.	4.A/	.	.	.	4a/	.	.	.	.	.
.	.	.	.	.	.	4a/	.	.	.	.	.
.	.	8c\L	.	.	.	.	.	.	.	.	.
.	.	8f\	.	.	.	12cc\L	.	.	.	.	.
.	.	.	.	.	.	12ff\	.	.	.	.	.
.	.	8e-X\J	.	.	.	.	.	.	.	.	.
.	.	.	.	.	.	12ee-\J	.	.	.	.	.
=57	=57	=57	=57	=57	=57	=57	=57	=57	=57	=57	=57
.	.	.	.	.	.	8qqff/	.	.	.	.	.
2B-\	.	8e-\L	.	2f/]	.	8ee-\L	.	1r	.	1r	.
.	.	8d\J	.	.	.	8dd\J	.	.	.	.	.
.	.	4.d\	.	.	.	4.dd\	.	.	.	.	.
2D\	.	.	.	2b-\	.	.	.	.	.	.	.
.	.	8f\L	.	.	.	(8ff'\L	.	.	.	.	.
.	.	8f\	.	.	.	8ff'\	.	.	.	.	.
.	.	8f\J	.	.	.	8ff'\J)	.	.	.	.	.
=58	=58	=58	=58	=58	=58	=58	=58	=58	=58	=58	=58
2E-\	.	(8f#X\L	.	1b-	.	8ff#X\L	.	1r	.	1r	.
.	.	8g\J)	.	.	.	8gg\J	.	.	.	.	.
.	.	4.g\	.	.	.	4.bb-\	.	.	.	.	.
2G\	.	.	.	.	.	.	.	.	.	.	.
.	.	8e-\L	.	.	.	8ee-X\L	.	.	.	.	.
.	.	8c\	.	.	.	8cc\	.	.	.	.	.
.	.	8B-X\J	.	.	.	8b-\J	.	.	.	.	.
!	!	!LO:LB:g=original	!	!	!	!	!	!	!	!	!
=59	=59	=59	=59	=59	=59	=59	=59	=59	=59	=59	=59
.	.	8qqB-/	.	.	.	8qqcc/	.	.	.	.	.
2F\	.	4An/	.	2.cc\	.	8b-\L	.	1r	.	1r	.
.	.	.	.	.	.	8a\J	.	.	.	.	.
.	.	4.A/	.	.	.	4.a\	.	.	.	.	.
(2A\	.	.	.	.	.	.	.	.	.	.	.
.	.	8g\L	.	.	.	(8gg\L	.	.	.	.	.
.	.	8f\	.	12ee-X\L	.	8ffn\	.	.	.	.	.
.	.	.	.	12dd\	.	.	.	.	.	.	.
.	.	8e-X\J	.	.	.	8ee-X\J)	.	.	.	.	.
.	.	.	.	12cc\J	.	.	.	.	.	.	.
=60	=60	=60	=60	=60	=60	=60	=60	=60	=60	=60	=60
2B-\)	.	8e-\L	.	(4.b-\	.	8ee-\L	.	1r	.	1r	.
.	.	(8d\	.	.	.	8dd\	.	.	.	.	.
.	.	8c#X\	.	.	.	8cc#X\	.	.	.	.	.
.	.	8d\J)	.	8f/)	.	8dd\J	.	.	.	.	.
2E-X\	.	8r	.	2f/	.	8r	.	.	.	.	.
.	.	8cn/L	.	.	.	8ccn\	.	.	.	.	.
!	!	!	!	!	!	!LO:LB:g=original	!	!	!	!	!
.	.	8Bn/	.	.	.	(8bn\L	.	.	.	.	.
.	.	8c/J	.	.	.	8cc\J)	.	.	.	.	.
=61	=61	=61	=61	=61	=61	=61	=61	=61	=61	=61	=61
2D\	.	8c/L	.	[1f	.	(8cc\L	.	1r	.	1r	.
.	.	8B-X/	.	.	.	8b-X\)	.	.	.	.	.
.	.	8A/	.	.	.	8b-|\	.	.	.	.	.
.	.	8B-/J	.	.	.	8b-|\J	.	.	.	.	.
2An\	.	8f\L	.	.	.	(8ff\L	.	.	.	.	.
.	.	8e-X\	.	.	.	8ee-X\	.	.	.	.	.
.	.	8d\	.	.	.	8dd\	.	.	.	.	.
.	.	8e-\J	.	.	.	8ee-\J)	.	.	.	.	.
=62	=62	=62	=62	=62	=62	=62	=62	=62	=62	=62	=62
2B-\	.	8e-\L	.	1f]	.	(8ee-\L	.	1r	.	1r	.
.	.	(8d\	.	.	.	8dd\	.	.	.	.	.
.	.	8c#X\	.	.	.	8cc#X\	.	.	.	.	.
.	.	8d\J)	.	.	.	8dd\J)	.	.	.	.	.
2E-X\	.	8r	.	.	.	8r	.	.	.	.	.
.	.	(8cn/L	.	.	.	(8ccn\L	.	.	.	.	.
.	.	8Bn/	.	.	.	8bn\	.	.	.	.	.
.	.	8c/J)	.	.	.	8cc\J)	.	.	.	.	.
!	!	!LO:LB:g=original	!	!	!	!	!	!	!	!	!
=63	=63	=63	=63	=63	=63	=63	=63	=63	=63	=63	=63
4D\	.	4B-X/	.	8b-\L	.	8b-X\L	.	1r	.	1r	.
.	.	.	.	8a\	.	8cc\	.	.	.	.	.
4r	.	4r	.	8b-\	.	8dd\	.	.	.	.	.
.	.	.	.	8cc\J	.	8ee-X\J	.	.	.	.	.
2r	.	2r	.	8b-\L	.	8dd\L	.	.	.	.	.
.	.	.	.	8cc\	.	8ee-\	.	.	.	.	.
.	.	.	.	8dd\	.	8ff\	.	.	.	.	.
.	.	.	.	8ee-X\J	.	8gg\J	.	.	.	.	.
!	!	!	!	!LO:LB:g=original	!	!	!	!	!	!	!
=64	=64	=64	=64	=64	=64	=64	=64	=64	=64	=64	=64
!	!	!	!LO:DY:b:t=for	!	!LO:DY:b:t=for	!	!LO:DY:b:t=for	!	!	!	!
4r	.	4B-/	f	4ff\	f	4aa-X\	f	1r	.	1r	.
8F\L	.	2B-/	.	2ff\	.	2aa-\	.	.	.	.	.
8E-\J	.	.	.	.	.	.	.	.	.	.	.
8qqE-/	.	.	.	.	.	.	.	.	.	.	.
4D\	.	.	.	.	.	.	.	.	.	.	.
8C\L	.	4B-/	.	4ff\	.	4aa-\	.	.	.	.	.
8BB-\J	.	.	.	.	.	.	.	.	.	.	.
=65	=65	=65	=65	=65	=65	=65	=65	=65	=65	=65	=65
!	!	!	!	!	!	!LO:TX:a:t=SIC&colon;s=8qaa-	!	!	!	!	!
.	.	.	.	8qqff/	p	8qqaa/	.	.	.	.	.
2E-\	.	2e-\	.	4ee-\	.	4gg\	.	1r	.	1r	.
!	!	!	!	!	!	!	!	!	!	!LO:LB:g=original	!
.	.	.	.	8dd\L	.	8ff\L	.	.	.	.	.
.	.	.	.	8cc\J	.	8ee-\J	.	.	.	.	.
4F\	.	4f\	.	4b-\	.	4dd\	.	.	.	.	.
4FF/	.	4F/	.	4ant\	.	4ccT\	.	.	.	.	.
!	!	!	!	!	!	!LO:LB:g=original	!	!	!	!	!
!LO:LB:g=original	!	!	!	!	!	!	!	!	!	!	!
=66	=66	=66	=66	=66	=66	=66	=66	=66	=66	=66	=66
!LO:TX:t=P:problem:dźwięk niewidoczny - defekt rkp	!	!	!	!	!	!	!	!	!	!	!
.	.	.	.	8qqa/	.	8qqcc/	.	.	.	.	.
4B-\yy	.	[1B-	p	2b-\	.	2b-\	.	[1B-	p	1b-	p
4B-\	.	.	.	.	.	.	.	.	.	.	.
4B-\	.	.	.	4r	.	4r	.	.	.	.	.
4B-\	.	.	.	(4dd\	p	(4bb-\	p	.	.	.	.
=67	=67	=67	=67	=67	=67	=67	=67	=67	=67	=67	=67
4B-\	.	1B-]	.	4ee-X\	.	4aa\	.	1B-_	.	1b-	.
!	!	!	!	!	!	!	!	!LO:LB:g=original	!	!	!
4B-\	.	.	.	4ff\	.	4aa-X\	.	.	.	.	.
4B-\	.	.	.	4ee-\)	.	4gg\	.	.	.	.	.
4B-\	.	.	.	4an/	.	4ee-X\)	.	.	.	.	.
=68	=68	=68	=68	=68	=68	=68	=68	=68	=68	=68	=68
.	.	.	.	8qqa/	.	8qqee-/	.	.	.	.	.
4BB-/	pp	1B-	pp	2b-\	.	2dd\	.	1B-_	.	1b-	.
4BB-/	.	.	.	.	.	.	.	.	.	.	.
4BB-/	.	.	.	4r	.	4r	.	.	.	.	.
4BB-/	.	.	.	4d/	.	4b-\	pp	.	.	.	.
=69	=69	=69	=69	=69	=69	=69	=69	=69	=69	=69	=69
4BB-/	.	1B-	.	4e-X/	pp	(4an/	.	1B-_	.	1b-	.
4BB-/	.	.	.	4f/	.	4a-X/	.	.	.	.	.
4BB-/	.	.	.	4e-/	.	4g/	.	.	.	.	.
4BB-/	.	.	.	4c/	.	4e-X/)	.	.	.	.	.
=70	=70	=70	=70	=70	=70	=70	=70	=70	=70	=70	=70
2.BB-/	.	2.B-/	.	2c/	.	2e-/	.	2.B-/]	pp	2.b-\	pp
!	!	!	!	!	!	!LO:TX:b:t=Volti Subito	!	!	!	!	!
.	.	.	.	4B-/	.	4d/	.	.	.	.	.
=:|!	=:|!	=:|!	=:|!	=:|!	=:|!	=:|!	=:|!	=:|!	=:|!	=:|!	=:|!
*-	*-	*-	*-	*-	*-	*-	*-	*-	*-	*-	*-
!!!RDF**kern: | = vertical stroke
!!!RDF**kern: > = above
!!!RDF**kern: < = below
!!!system-decoration: [(s1,s2)][(s3,s4,s5,s6)]
!!!ENC:Krzysztof Stępień
!!!END:2020-09-14
!!!ENC:Julita Ruszuk
!!!END:2022-01-27
